packages/bezier-icons/icons/chat-bubble-alt-add.svg

<svg width="24" height="24" viewBox="0 0 24 24" fill="none" xmlns="http://www.w3.org/2000/svg">
<path fill-rule="evenodd" clip-rule="evenodd" d="M12 3C6.36893 3 1.5 6.87529 1.5 12C1.5 14.8483 3.03108 17.3352 5.33525 18.9584C5.09523 19.592 4.78995 20.1768 4.52033 20.6348C4.20883 21.1639 4.25404 21.7844 4.55356 22.2407C4.86463 22.7145 5.46261 23.017 6.12433 22.8496C7.17683 22.5834 8.7919 22.0248 10.2749 20.8793C10.8368 20.9588 11.4131 21 12 21C15.0904 21 17.9513 19.8328 19.9037 17.9324C19.609 17.9769 19.3072 18 19 18C18.2999 18 17.6279 17.8801 17.0032 17.6597C15.6198 18.4959 13.9038 19 12 19C11.3709 19 10.7588 18.9436 10.1704 18.837L9.70311 18.7523L9.3422 19.0609C8.53521 19.751 7.63792 20.2159 6.83962 20.5258C7.08427 20.0074 7.31856 19.4215 7.48867 18.804L7.69118 18.0688L7.03588 17.679C4.84342 16.3746 3.5 14.2833 3.5 12C3.5 8.28815 7.13766 5 12 5C13.9038 5 15.6198 5.50407 17.0032 6.34027C17.6279 6.11989 18.2999 6 19 6C19.3072 6 19.609 6.02308 19.9037 6.06761C17.9513 4.16722 15.0904 3 12 3ZM18 9C18 8.44772 18.4477 8 19 8C19.5523 8 20 8.44772 20 9V11H22C22.5523 11 23 11.4477 23 12C23 12.5523 22.5523 13 22 13H20V15C20 15.5523 19.5523 16 19 16C18.4477 16 18 15.5523 18 15V13H16C15.4477 13 15 12.5523 15 12C15 11.4477 15.4477 11 16 11H18V9Z" fill="#313234"/>
</svg>

<svg xmlns="http://www.w3.org/2000/svg" width="24" height="24" fill="none" viewBox="0 0 24 24"><path fill="#313234" fill-rule="evenodd" d="M12 3C6.369 3 1.5 6.875 1.5 12c0 2.848 1.531 5.335 3.835 6.958-.24.634-.545 1.219-.815 1.677-.311.529-.266 1.15.034 1.606a1.44 1.44 0 0 0 1.57.609c1.053-.267 2.668-.825 4.15-1.97Q11.12 21 12 21c3.09 0 5.951-1.167 7.904-3.068a6.05 6.05 0 0 1-2.9-.272C15.62 18.496 13.903 19 12 19q-.946-.001-1.83-.163l-.467-.085-.36.309c-.808.69-1.705 1.155-2.503 1.465a11 11 0 0 0 .649-1.722l.202-.735-.655-.39C4.843 16.375 3.5 14.283 3.5 12c0-3.712 3.638-7 8.5-7 1.904 0 3.62.504 5.003 1.34a6 6 0 0 1 2.9-.272C17.952 4.168 15.09 3 12 3m6 6a1 1 0 1 1 2 0v2h2a1 1 0 1 1 0 2h-2v2a1 1 0 1 1-2 0v-2h-2a1 1 0 1 1 0-2h2z" clip-rule="evenodd"/></svg>
